X:3131
T:Danish folk song
C:anon.
O:Denmark
Z:Transcribed by Frank Nordberg - http://www.musicaviva.com
F:http://abc.musicaviva.com/tunes/denmark/danish-folk-song01/danish-folk-song01-1.abc
M:C
L:1/8
K:C
"C"c2G2E2C2|"G7"DE FD "C"E2C2|"C"c2G2E2C2|"G7"DE FD "C"C4||
|:"G7"D2D2 "C"E2E2|"G7"FE FD "C"E2C2|"G7"D2D2 "C"E2E2|"G7"FE FD "C"C4:|
"C"c2G2E2C2|"G7"DE FD "C"E2C2|"C"c2G2E2C2|"G7"DE FD "C"C4|]
W:
W:
W:  From Musica Viva - http://www.musicaviva.com
W:  the Internet center for free sheet music downloads.
